pages/static/img/tools/ampify.svg

<svg height="1000pt" viewBox="0 0 1500 1000" width="1500pt" xmlns="http://www.w3.org/2000/svg" xmlns:xlink="http://www.w3.org/1999/xlink"><clipPath id="a"><path d="m0 0h1500v1000h-1500z"/></clipPath><clipPath id="b"><path d="m160.545 373.5h1178.91v253h-1178.91z"/></clipPath><clipPath id="c"><path d="m160.545 373.5h1178.91v253h-1178.91z"/></clipPath><g clip-path="url(#a)"><path d="m0 0h1500v1000h-1500z" fill="none"/><g clip-path="url(#b)"><g clip-path="url(#c)"><path d="m160.545 626.498h1178.9v-252.998h-1178.9z" fill="none"/></g></g><path d="m778.656 567.991c0-.799 1.596-4.002 3.364-7.044 5.607-9.13 45.652-78.817 48.533-84.577 2.243-4.325 2.404-5.769.644-7.85-1.604-2.08-5.929-2.404-27.234-1.766-24.832.644-25.307.483-25.307-2.718 0-4.486 9.768-68.718 10.407-69.524 1.765-1.598 29.954 5.13 41.329 9.769 15.859 6.575 29.954 19.547 37.005 34.124 9.929 20.346 9.446 65.515-.638 85.7-12.336 24.347-40.692 40.844-75.931 44.048-6.726.644-12.172.483-12.172-.162z" fill="#141440"/><g fill="#fff"><path d="m208.819 598.336c.235-1.517 2.924-10.046 5.844-19.042 7.826-24.188 17.643-55.506 22.203-70.695 3.973-13.324 10.981-35.292 21.497-67.188 2.925-8.997 6.426-20.802 7.945-26.293 4.678-17.643 6.779-23.486 9.351-24.886 2.689-1.519 47.672-1.99 54.334-.472l4.09.819 5.491 17.877c3.036 9.699 7.944 25.358 10.87 34.709 10.163 31.549 17.878 56.672 18.696 60.643.464 2.102 7.36 24.187 15.306 49.075 7.944 24.774 14.488 45.807 14.488 46.625 0 1.165-6.308 1.4-29.448 1.165l-29.559-.347-1.871-7.597c-1.053-4.208-2.689-10.746-3.625-14.608-1.284-5.607-2.102-7.008-3.973-6.89-1.166 0-8.527.818-16.241 1.636-11.917 1.283-16.244 1.283-28.278-.235l-14.37-1.636-1.636 5.843c-1.401 4.672-5.373 22.434-5.373 23.834 0 .117-12.74.235-28.165.235h-28.159zm106.333-69.758c2.454-.583 4.789-1.283 5.026-1.636.352-.348-3.507-16.707-8.646-36.575-8.296-32.483-10.751-39.022-10.751-29.323 0 1.4-3.855 16.942-8.532 34.349l-8.646 31.902 4.79 1.053c6.31 1.401 21.15 1.518 26.759.23z"/><path d="m425.81 530.449v-70.577l10.281-3.154c17.177-5.261 25.71-6.543 45.807-7.244 22.433-.818 37.039.936 49.427 5.844l7.826 3.155 7.363-2.809c13.552-5.489 16.942-6.072 36.456-5.955 20.803 0 28.394 1.401 41.247 7.592 10.404 5.025 15.306 9.933 21.032 21.149 8.533 16.943 8.65 17.643 9.233 73.149l.583 49.309h-55.153v-42.3c0-26.988-.464-44.165-1.282-47.09-3.037-11.1-11.688-16.589-24.54-15.425-3.972.354-7.597 1.053-8.063 1.636-.583.472-.583 3.273 0 6.197.583 2.919 1.054 25.94 1.171 51.18v45.802h-54.804l-.348-44.635c-.353-44.637-.353-44.755-3.161-50.481-2.217-4.319-3.971-6.192-7.591-7.828-4.672-2.1-14.023-2.8-19.048-1.517l-2.683.699v103.762h-53.753z"/><path d="m687.35 501.194v-101.552l12.972-1.768c16.336-2.404 73.365-5.768 74.647-4.646.484.485-14.417 26.276-33.157 57.19-18.579 30.914-33.64 57.341-33.318 58.948.477 2.404 3.203 2.726 26.106 3.04l25.63.324-.314 4.486c-.807 10.567-10.254 82.809-11.053 84.092-.483.646-14.424 1.282-31.237 1.282h-30.276z"/><path d="m904.824 526.477.346-74.431 4.679-1.053c6.073-1.401 33.184-1.636 41.829-.466l6.662.93v149.451h-53.753z"/><path d="m985.216 526.712v-74.201h120.239l.936 4.443c.464 2.337.929 10.398.929 17.76 0 7.363-.465 15.424-.929 17.878l-.936 4.319h-65.322v23.375h52.351l1.401 10.163c1.401 9.351 1.053 19.279-.818 31.084l-.7 4.319h-52.234v35.056h-54.917z"/><path d="m1178.015 578.94v-21.968l-8.18-14.371c-4.437-7.826-8.181-14.488-8.181-14.841 0-.7-9.815-17.643-21.733-37.393-4.671-7.709-10.045-17.289-11.916-21.261-1.989-3.973-4.672-9.116-6.079-11.334-1.983-3.272-2.337-4.562-1.282-5.609 1.982-1.988 53.981-1.988 56.435 0 .936.812 5.261 8.645 9.698 17.526 21.15 42.646 19.749 40.193 21.267 38.092.818-1.053 7.598-14.142 15.077-29.094l13.436-27.113 11.333-.935c13.089-.93 42.302.236 43.819 1.753.583.583-3.508 8.764-9.815 19.516-10.163 17.412-12.972 22.438-25.123 43.936-2.572 4.671-8.998 15.776-14.253 24.768l-9.58 16.131v44.165h-54.923z"/></g><path d="m748.702 603.076c1.121-4.969 10.729-78.657 11.214-85.86l.314-4.486-25.63-.324c-22.903-.314-25.629-.636-26.106-3.04-.322-1.607 14.417-27.873 32.835-58.465 18.265-30.759 34.923-58.632 36.844-62.157 2.404-4.641 4.322-6.406 7.05-6.406 3.526 0 3.84.646 3.526 6.406-.161 3.525-2.728 22.265-5.93 41.652-3.042 19.384-5.607 35.883-5.768 36.68 0 .638 11.373 1.121 25.308.96 13.777-.322 26.112-.322 27.234-.161 3.042.322 2.243 5.13-1.76 12.175-32.358 55.745-49.177 86.182-49.177 88.586 0 1.596-3.687 9.132-8.172 16.497-4.647 7.366-9.294 15.378-10.568 17.943-1.768 3.203-3.525 4.324-7.212 4.324-4.485 0-4.81-.324-4.002-4.324z" fill="#f9fbfb" opacity="0"/></g></svg>

<?xml version="1.0" encoding="UTF-8" standalone="no"?><!-- Generator: Gravit.io --><svg xmlns="http://www.w3.org/2000/svg" xmlns:xlink="http://www.w3.org/1999/xlink" style="isolation:isolate" viewBox="0 0 1500 1000" width="1500pt" height="1000pt"><defs><clipPath id="_clipPath_nIccY6HKWPpsMYiAt2H927tNrylMNY2B"><rect width="1500" height="1000"/></clipPath></defs><g clip-path="url(#_clipPath_nIccY6HKWPpsMYiAt2H927tNrylMNY2B)"><rect width="1500" height="1000" style="fill:rgb(85,191,167)" fill-opacity="0"/><clipPath id="_clipPath_U0mSxVW2upGS1vSi97nddXaPs5HA2J0e"><rect x="160.545" y="373.5" width="1178.91" height="253" transform="matrix(1,0,0,1,0,0)" fill="rgb(255,255,255)"/></clipPath><g clip-path="url(#_clipPath_U0mSxVW2upGS1vSi97nddXaPs5HA2J0e)"><g><clipPath id="_clipPath_UR3sWg8x5wzOCaYs6F4bQSpP5OdyNio9"><rect x="160.545" y="373.5" width="1178.91" height="253" transform="matrix(1,0,0,1,0,0)" fill="rgb(255,255,255)"/></clipPath><g clip-path="url(#_clipPath_UR3sWg8x5wzOCaYs6F4bQSpP5OdyNio9)"><g><g><path d=" M 160.545 626.498 L 1339.445 626.498 L 1339.445 373.5 L 160.545 373.5 L 160.545 626.498 L 160.545 626.498 Z " fill="none"/></g></g></g></g></g><g><g><path d=" M 778.656 567.991 C 778.656 567.192 780.252 563.989 782.02 560.947 C 787.627 551.817 827.672 482.13 830.553 476.37 C 832.796 472.045 832.957 470.601 831.197 468.52 C 829.593 466.44 825.268 466.116 803.963 466.754 C 779.131 467.398 778.656 467.237 778.656 464.036 C 778.656 459.55 788.424 395.318 789.063 394.512 C 790.828 392.914 819.017 399.642 830.392 404.281 C 846.251 410.856 860.346 423.828 867.397 438.405 C 877.326 458.751 876.843 503.92 866.759 524.105 C 854.423 548.452 826.067 564.949 790.828 568.153 C 784.102 568.797 778.656 568.636 778.656 567.991 Z " fill="rgb(20,20,64)"/><path d=" M 208.819 598.336 C 209.054 596.819 211.743 588.29 214.663 579.294 C 222.489 555.106 232.306 523.788 236.866 508.599 C 240.839 495.275 247.847 473.307 258.363 441.411 C 261.288 432.414 264.789 420.609 266.308 415.118 C 270.986 397.475 273.087 391.632 275.659 390.232 C 278.348 388.713 323.331 388.242 329.993 389.76 L 334.083 390.579 L 339.574 408.456 C 342.61 418.155 347.518 433.814 350.444 443.165 C 360.607 474.714 368.322 499.837 369.14 503.808 C 369.604 505.91 376.5 527.995 384.446 552.883 C 392.39 577.657 398.934 598.69 398.934 599.508 C 398.934 600.673 392.626 600.908 369.486 600.673 L 339.927 600.326 L 338.056 592.729 C 337.003 588.521 335.367 581.983 334.431 578.121 C 333.147 572.514 332.329 571.113 330.458 571.231 C 329.292 571.231 321.931 572.049 314.217 572.867 C 302.3 574.15 297.973 574.15 285.939 572.632 L 271.569 570.996 L 269.933 576.839 C 268.532 581.511 264.56 599.273 264.56 600.673 C 264.56 600.79 251.82 600.908 236.395 600.908 L 208.236 600.908 L 208.819 598.336 L 208.819 598.336 Z  M 315.152 528.578 C 317.606 527.995 319.941 527.295 320.178 526.942 C 320.53 526.594 316.671 510.235 311.532 490.367 C 303.236 457.884 300.781 451.345 300.781 461.044 C 300.781 462.444 296.926 477.986 292.249 495.393 L 283.603 527.295 L 288.393 528.348 C 294.703 529.749 309.543 529.866 315.152 528.578 Z " fill="rgb(255,255,255)"/><path d=" M 425.81 530.449 L 425.81 459.872 L 436.091 456.718 C 453.268 451.457 461.801 450.175 481.898 449.474 C 504.331 448.656 518.937 450.41 531.325 455.318 L 539.151 458.473 L 546.514 455.664 C 560.066 450.175 563.456 449.592 582.97 449.709 C 603.773 449.709 611.364 451.11 624.217 457.301 C 634.621 462.326 639.523 467.234 645.249 478.45 C 653.782 495.393 653.899 496.093 654.482 551.599 L 655.065 600.908 L 599.912 600.908 L 599.912 558.608 C 599.912 531.62 599.448 514.443 598.63 511.518 C 595.593 500.418 586.942 494.929 574.09 496.093 C 570.118 496.447 566.493 497.146 566.027 497.729 C 565.444 498.201 565.444 501.002 566.027 503.926 C 566.61 506.845 567.081 529.866 567.198 555.106 L 567.198 600.908 L 512.394 600.908 L 512.046 556.273 C 511.693 511.636 511.693 511.518 508.885 505.792 C 506.668 501.473 504.914 499.6 501.294 497.964 C 496.622 495.864 487.271 495.164 482.246 496.447 L 479.563 497.146 L 479.563 600.908 L 425.81 600.908 L 425.81 530.449 L 425.81 530.449 Z " fill="rgb(255,255,255)"/><path d=" M 687.35 501.194 L 687.35 399.642 L 700.322 397.874 C 716.658 395.47 773.687 392.106 774.969 393.228 C 775.453 393.713 760.552 419.504 741.812 450.418 C 723.233 481.332 708.172 507.759 708.494 509.366 C 708.971 511.77 711.697 512.092 734.6 512.406 L 760.23 512.73 L 759.916 517.216 C 759.109 527.783 749.662 600.025 748.863 601.308 C 748.38 601.954 734.439 602.59 717.626 602.59 L 687.35 602.59 L 687.35 501.194 L 687.35 501.194 Z " fill="rgb(255,255,255)"/><path d=" M 904.824 526.477 L 905.17 452.046 L 909.849 450.993 C 915.922 449.592 943.033 449.357 951.678 450.527 L 958.34 451.457 L 958.34 600.908 L 904.587 600.908 L 904.824 526.477 L 904.824 526.477 Z " fill="rgb(255,255,255)"/><path d=" M 985.216 526.712 L 985.216 452.511 L 1105.455 452.511 L 1106.391 456.954 C 1106.855 459.291 1107.32 467.352 1107.32 474.714 C 1107.32 482.077 1106.855 490.138 1106.391 492.592 L 1105.455 496.911 L 1040.133 496.911 L 1040.133 520.286 L 1092.484 520.286 L 1093.885 530.449 C 1095.286 539.8 1094.938 549.728 1093.067 561.533 L 1092.367 565.852 L 1040.133 565.852 L 1040.133 600.908 L 985.216 600.908 L 985.216 526.712 L 985.216 526.712 Z " fill="rgb(255,255,255)"/><path d=" M 1178.015 578.94 L 1178.015 556.972 L 1169.835 542.601 C 1165.398 534.775 1161.654 528.113 1161.654 527.76 C 1161.654 527.06 1151.839 510.117 1139.921 490.367 C 1135.25 482.658 1129.876 473.078 1128.005 469.106 C 1126.016 465.133 1123.333 459.99 1121.926 457.772 C 1119.943 454.5 1119.589 453.21 1120.644 452.163 C 1122.626 450.175 1174.625 450.175 1177.079 452.163 C 1178.015 452.975 1182.34 460.808 1186.777 469.689 C 1207.927 512.335 1206.526 509.882 1208.044 507.781 C 1208.862 506.728 1215.642 493.639 1223.121 478.687 L 1236.557 451.574 L 1247.89 450.639 C 1260.979 449.709 1290.192 450.875 1291.709 452.392 C 1292.292 452.975 1288.201 461.156 1281.894 471.908 C 1271.731 489.32 1268.922 494.346 1256.771 515.844 C 1254.199 520.515 1247.773 531.62 1242.518 540.612 L 1232.938 556.743 L 1232.938 600.908 L 1178.015 600.908 L 1178.015 578.94 L 1178.015 578.94 Z " fill="rgb(255,255,255)"/><g><g><g opacity="0"><path d=" M 748.702 603.076 C 749.823 598.107 759.431 524.419 759.916 517.216 L 760.23 512.73 L 734.6 512.406 C 711.697 512.092 708.971 511.77 708.494 509.366 C 708.172 507.759 722.911 481.493 741.329 450.901 C 759.594 420.142 776.252 392.269 778.173 388.744 C 780.577 384.103 782.495 382.338 785.223 382.338 C 788.749 382.338 789.063 382.984 788.749 388.744 C 788.588 392.269 786.021 411.009 782.819 430.396 C 779.777 449.78 777.212 466.279 777.051 467.076 C 777.051 467.714 788.424 468.197 802.359 468.036 C 816.136 467.714 828.471 467.714 829.593 467.875 C 832.635 468.197 831.836 473.005 827.833 480.05 C 795.475 535.795 778.656 566.232 778.656 568.636 C 778.656 570.232 774.969 577.768 770.484 585.133 C 765.837 592.499 761.19 600.511 759.916 603.076 C 758.148 606.279 756.391 607.4 752.704 607.4 C 748.219 607.4 747.894 607.076 748.702 603.076 Z " fill="rgb(249,251,251)"/></g></g></g></g></g></g></svg>
